X:1
T:Some Day
T:Charles Hutchinson Gabriel
T:Some Day
T:Public Domain
T:Public Domain
T:Public Domain
C:Charles Hutchinson Gabriel
Z:Public Domain
%%score ( 1 2 ) ( 3 4 )
L:1/8
M:3/4
K:F
V:1 treble 
V:2 treble 
V:3 bass 
V:4 bass 
V:1
 [A,C]2 | [CA]3 [DB] [CA]>[G,E] | [B,G]2 [A,F]2 [_EF]2 | [DB]3 [DB] [DF][_DG] | [CA]4 [FA]2 | %5
w: 1.~Some|day ’twill all be|o- ver— The|toil and cares of|life; Some|
w: 2.~Some|day I’ll see the|man- sions Of|Heav- en’s ci- ty|fair; Some|
w: 3.~Some|day I’ll see the|Sav- ior, And|know Him, face to|face; Some|
 [Ec]3 [EG] [^D^F][EG] | [DB]2 [CA]2 [B,G]2 | [=B,FG]3 [B,D] [B,FG][B,FA] | ([EG-]F E2) [B,G]2 x2 | %9
w: day the world be|van- quished With|all this mor- tal|strife; * * Some|
w: day I’ll greet with|plea- sure, The|dear ones wait- ing|there; * * Some|
w: day re- ceive, un-|mea- sured The|bless- ings of His|grace; * * Some|
 [A,^CG]3 [A,CG] [A,CA][A,CE] | [A,EG]2 [A,DF]2 [A,_EF]2 | (D F2) [Fd] [DF][DFG] | %12
w: jour- ney end- ed,|I’ll lay my|bur- * den down; Some|
w: hear the voic- es|Of God’s an-|gel- * ic throng; Some|
w: smile up- on me|From that white|throne * a- bove; Some|
 ([DF]2 [^CE]2) [CEA]2 | [=CD^FA]3 [CDFB] [CDFA][CDF] | [=CDA]2 [B,DG]2 [B,D]2 | %15
w: in * realms|per- nal Re- ceive,|at last, my|
w: I’ll * join|cho- rus In Heav’n’s|im- mor- tal|
w: I’ll * know|full- ness Of His|un- dy- ing|
 [B,CF]3 [B,CE] [B,CE][B,CE] | [A,CF]4 ||[M:4/4]"^Refrain" (FC) | (EG^FG [Ec])[EB][CE][EB] | %19
w: crown. * * *||||
w: song. Some day, some|hap-|py *|The * * * * Lord will wipe|
w: love. * * *||||
 (FF E<D C2) [FA]2 | [FG]3 [FA] [FG][B,=D][FG][FA] | (E_ED_D C2) [EB]2 | %22
w: |||
w: tears * * * * a-|And I shall go to dwell|with * * * * Him,|
w: |||
 [FA]3 F [EB][EG][Fc][_EF] | (FFFF [Fd])FEF | (z FEF [Gc])[EB] [EA]<[EG] | C<D C4 |] %26
w: ||||
w: dwell with Him, some hap- py||||
w: ||||
V:2
 x2 | x6 | x6 | x6 | x6 | x6 | x6 | x6 | _B,4 G3 x | x6 | x6 | d3 x3 | A4 x2 | x6 | x6 | x6 | x4 || %17
w: ||||||||day, the|||day,|su-|||||
w: ||||||||day I’ll|||day|the|||||
w: ||||||||day He’ll|||day|the|||||
[M:4/4] A2 | c4- x4 | A6 x2 | x8 | G6 x2 | x3 F x4 | d4- x4 | c4- x4 | F6 |] %26
w: |||||||||
w: day,|all|way,||To|day.||||
w: |||||||||
V:3
 A,2 | C3 D C>G, | B,2 A,2 _E2 | D3 D D_D | [F,,F,C]4 F2 | E3 D ^CE | D2 C2 [F,,C]2 | %7
w: ~|~ ~ ~ ~|~ ~ ~|~ ~ ~ ~|* ~|~ ~ ~ ~|~ ~ ~|
 =B,3 B, B,B, | (C,_D, z2) _B,2 x2 | A,3 A, A,A, | A,2 A,2 [C,A,]2 | A,3 B, DD | (D2 ^C2) C2 | %13
w: ~ ~ ~ ~|~ * ~|~ ~ ~ ~|~ ~ ~|~ ~ ~ ~|~ * ~|
 =C3 C CC | C2 B,2 B,2 | B,3 B, B,B, | [F,,F,A,]4 ||[M:4/4] (CF,) | %18
w: ~ some hap- py|~ ~ ~|~ ~ ~ ~|~|~ *|
 [C,G,][C,B,][C,A,][C,B,] [C,G,][C,D][C,B,][C,D] | C6 [F,C]2 | %20
w: all tears a- way ~ ~ ~ ~|~ ~|
 [G,=B,]3 [G,B,] [G,B,]G,[G,B,][G,B,] | C,^C,D,^D, E,2 [C,^C]2 | %22
w: ~ ~ to dwell with Him,|dwell with Him, ~ ~ ~|
 [F,C]3 [A,C] [G,C][B,C][A,C][F,A,] | [B,,B,][B,,B,][B,,B,][B,,B,] [=B,,^G,] z3 | %24
w: py day * * * *||
 z [C,A,][C,G,][C,A,] [C,B,][C,D] [C,C]<[C,B,] | A,<B, A,4 |] %26
w: ||
V:4
 x2 | F,,4 C,2 | F,,6 | F,4- x2 | x6 | ^C,6 | F,4 x2 | G,,6 | _B,4 C,4 | A,,6 | D,4 x2 | B,,6 | %12
w: |~ ~|~|~||~|~|~|~ ~|~|~|~|
 A,,6 | D,6 | B,,6 | [C,G,]6 | x4 ||[M:4/4] F,2 | x8 | x8 | x5 G, x2 | _B,6 x2 | x8 | x8 | x8 | %25
w: ~|day|~|~||~|||To|hap-||||
 [F,,F,]6 |] %26
w: |

